comment-processing.svg

<svg fill="currentColor" viewBox="0 0 24 24"><path d="M9 22a1 1 0 0 1-1-1v-3H4a2 2 0 0 1-2-2V4a2 2 0 0 1 2-2h16a2 2 0 0 1 2 2v12a2 2 0 0 1-2 2h-6.1l-3.7 3.71c-.2.19-.45.29-.7.29zm8-11V9h-2v2zm-4 0V9h-2v2zm-4 0V9H7v2z"/></svg>

<svg  viewBox="0 0 24 24" fill="currentColor"><path  d="M9,22A1,1 0 0,1 8,21V18H4A2,2 0 0,1 2,16V4C2,2.89 2.9,2 4,2H20A2,2 0 0,1 22,4V16A2,2 0 0,1 20,18H13.9L10.2,21.71C10,21.9 9.75,22 9.5,22V22H9M17,11V9H15V11H17M13,11V9H11V11H13M9,11V9H7V11H9Z"/></svg>
